X: 40758
T: Touching Cloth
R: reel
M: 4/4
K: Dmajor
|:A~D3 BAFB|ABdf efdB|A~D3 BAFB|defd e2 dB|
A~D3 BAFB|ABdf egfg|afdf efdB|Adfd efdB:|
|:Ad (3ddd Adfd|Adfd efdB|Ad (3ddd Adfd|(3efg fd efdB|
Ad (3ddd Adfd|Adfd egfg|afdf efdB|Adfd efdB:|

